X: 5
T:Good Christian Men Rejoice
% Nottingham Music Database
S:Trad
M:6/8
K:F
F|"F"F2F A2B|"F"c2d "C7"c2c|"F"F2F A2B|"F"c2d "C7"c3|"F"c2d c2B|
"F"A2G "Dm"F3|"F"F3 "F/a"F3|"Bb"G2G "C7"A2G|"Bb"F2"c"G "F"A3|"F"c2d c2B|\
"F"A2G "Dm"F2F|
"Bb"G2G "C7"A2G|"Bb"F2"c"G "F"A3|"Dm"D2D "A7"E2E|"Dm"F3 "C7"c3|"F"A2A "C7"G2G|\
"F"F3 -F2:|<end>
<start>
